modules/ve-mw/ui/styles/images/icons/gallery.svg

<?xml version="1.0" encoding="UTF-8"?>
<svg xmlns="http://www.w3.org/2000/svg" width="24" height="24" viewBox="0, 0, 24, 24">
    <g id="gallery" opacity=".75">
        <path d="M20 8.111h-10c-2-.007-3 .993-3 2.993v7.007c-.014 2 1 2.988 3 3h10c2-.012 2.994-.994 3-3v-7c-.006-2-1-3.007-3-3zm1 11h-12v-9h12v9zM10 16.167l2.917-2.723 1.94 1.799-1.094.851.73.802 3.424-2.674 2.083 1.556v2.333h-10zM10 15l2.93-3.232 2.538 2.467 2.449-1.568 2.083 1.555v-3.111h-10zM7 5.111h10.146c1.01.009 1.988.261 2.575 1.165.16.246.186.557.279.835h-14v11c-1.559-.373-1.898-1.38-1.986-2.85l-.014-7.157c0-2 1-3 3-2.993zM4 2h10.146c1.01.009 1.988.261 2.575 1.165.16.246.186.557.279.835h-14v11c-1.559-.373-1.898-1.381-1.986-2.85l-.014-7.157c0-2 1-3 3-2.993z"/>
    </g>
</svg>

<?xml version="1.0" encoding="UTF-8"?>
<!DOCTYPE svg PUBLIC "-//W3C//DTD SVG 1.1//EN" "http://www.w3.org/Graphics/SVG/1.1/DTD/svg11.dtd">
<svg version="1.1" xmlns="http://www.w3.org/2000/svg" xmlns:xlink="http://www.w3.org/1999/xlink" x="0px" y="0px" width="24" height="24" viewBox="0, 0, 24, 24">
<g id="gallery" style="opacity:0.75;">
	<path d="M20,8.111 L10,8.111 C8,8.104 7,9.104 7,11.104 L7,18.111 C6.986,20.111 8,21.099 10,21.111 L20,21.111 C22,21.099 22.994,20.117 23,18.111 L23,11.111 C22.994,9.111 22,8.104 20,8.111 z M21,19.111 L9,19.111 L9,10.111 L21,10.111 L21,19.111 z" fill="#000000"/>
	<path d="M10,16.167 L12.917,13.444 L14.857,15.243 L13.763,16.094 L14.493,16.896 L17.917,14.222 L20,15.778 L20,18.111 L10,18.111 z" fill="#000000"/>
	<path d="M10,15 L12.93,11.768 L15.468,14.235 L17.917,12.667 L20,14.222 L20,11.111 L10,11.111 z" fill="#000000"/>
	<path d="M7,5.111 L17.146,5.111 C18.156,5.12 19.134,5.372 19.721,6.276 C19.881,6.522 19.907,6.833 20,7.111 L6,7.111 L6,18.111 C4.441,17.738 4.102,16.731 4.014,15.261 L4,8.104 C4,6.104 5,5.104 7,5.111 z z" fill="#000000"/>
	<path d="M4,2 L14.146,2 C15.156,2.009 16.134,2.261 16.721,3.165 C16.881,3.411 16.907,3.722 17,4 L3,4 L3,15 C1.441,14.627 1.102,13.619 1.014,12.15 L1,4.993 C1,2.993 2,1.993 4,2 z z" fill="#000000"/>
</g>
</svg>
